packages/ui-icons/svg/Line/underline.svg

<svg viewBox="0 0 1920 1920" version="1.1" xmlns="http://www.w3.org/2000/svg">
    <path d="M1698.92308,1772.30769 L1698.92308,1920 L222,1920 L222,1772.30769 L1698.92308,1772.30769 Z M369.692308,0 L369.692308,812.307692 C369.692308,1097.35385 601.569231,1329.23077 886.615385,1329.23077 L886.615385,1329.23077 L1034.30769,1329.23077 C1319.35385,1329.23077 1551.23077,1097.35385 1551.23077,812.307692 L1551.23077,812.307692 L1551.23077,0 L1698.92308,0 L1698.92308,812.307692 C1698.92308,1178.73231 1400.73231,1476.92308 1034.30769,1476.92308 L1034.30769,1476.92308 L886.615385,1476.92308 C520.190769,1476.92308 222,1178.73231 222,812.307692 L222,812.307692 L222,0 L369.692308,0 Z" stroke="none" stroke-width="1" fill-rule="evenodd"/>
</svg>

<svg viewBox="0 0 1920 1920" version="1.1" xmlns="http://www.w3.org/2000/svg">
    <path d="M1551.23 0h147.693v812.308c0 366.424-298.19 664.615-664.615 664.615H886.615c-366.424 0-664.615-298.19-664.615-664.615V0h147.692v812.308c0 285.046 231.877 516.923 516.923 516.923h147.693c285.046 0 516.923-231.877 516.923-516.923V0zM222 1920v-147.692h1476.923V1920H222z" stroke="none" stroke-width="1" fill-rule="evenodd"/>
</svg>
